icons/shaman.svg

<?xml version="1.0" encoding="UTF-8" standalone="no"?>
<!-- Created with Inkscape (http://www.inkscape.org/) -->
<svg
   xmlns:dc="http://purl.org/dc/elements/1.1/"
   xmlns:cc="http://creativecommons.org/ns#"
   xmlns:rdf="http://www.w3.org/1999/02/22-rdf-syntax-ns#"
   xmlns:svg="http://www.w3.org/2000/svg"
   xmlns="http://www.w3.org/2000/svg"
   xmlns:sodipodi="http://sodipodi.sourceforge.net/DTD/sodipodi-0.dtd"
   xmlns:inkscape="http://www.inkscape.org/namespaces/inkscape"
   width="64"
   height="64"
   id="svg2"
   version="1.1"
   inkscape:version="0.46+devel"
   sodipodi:docname="shaman.svg"
   sodipodi:version="0.32"
   inkscape:output_extension="org.inkscape.output.svg.inkscape">
  <defs
     id="defs4">
    <inkscape:perspective
       sodipodi:type="inkscape:persp3d"
       inkscape:vp_x="0 : 526.18109 : 1"
       inkscape:vp_y="0 : 1000 : 0"
       inkscape:vp_z="744.09448 : 526.18109 : 1"
       inkscape:persp3d-origin="372.04724 : 350.78739 : 1"
       id="perspective10" />
    <inkscape:perspective
       id="perspective2389"
       inkscape:persp3d-origin="372.04724 : 350.78739 : 1"
       inkscape:vp_z="744.09448 : 526.18109 : 1"
       inkscape:vp_y="0 : 1000 : 0"
       inkscape:vp_x="0 : 526.18109 : 1"
       sodipodi:type="inkscape:persp3d" />
    <inkscape:perspective
       id="perspective3812"
       inkscape:persp3d-origin="372.04724 : 350.78739 : 1"
       inkscape:vp_z="744.09448 : 526.18109 : 1"
       inkscape:vp_y="0 : 1000 : 0"
       inkscape:vp_x="0 : 526.18109 : 1"
       sodipodi:type="inkscape:persp3d" />
    <linearGradient
       id="linearGradient2315">
      <stop
         id="stop2317"
         offset="0"
         style="stop-color:#000000;stop-opacity:0;" />
      <stop
         id="stop2319"
         offset="1"
         style="stop-color:#000000;stop-opacity:0.57195574;" />
    </linearGradient>
    <linearGradient
       id="linearGradient4072">
      <stop
         id="stop4074"
         offset="0"
         style="stop-color:#000000;stop-opacity:1;" />
      <stop
         id="stop4076"
         offset="1"
         style="stop-color:#000000;stop-opacity:0;" />
    </linearGradient>
    <inkscape:perspective
       id="perspective22159"
       inkscape:persp3d-origin="64 : 42.666667 : 1"
       inkscape:vp_z="128 : 64 : 1"
       inkscape:vp_y="0 : 1000 : 0"
       inkscape:vp_x="0 : 64 : 1"
       sodipodi:type="inkscape:persp3d" />
    <inkscape:perspective
       id="perspective35328"
       inkscape:persp3d-origin="24 : 16 : 1"
       inkscape:vp_z="48 : 24 : 1"
       inkscape:vp_y="0 : 1000 : 0"
       inkscape:vp_x="0 : 24 : 1"
       sodipodi:type="inkscape:persp3d" />
    <linearGradient
       id="linearGradient2564">
      <stop
         id="stop2566"
         offset="0"
         style="stop-color:#000000;stop-opacity:0;" />
      <stop
         id="stop2568"
         offset="1"
         style="stop-color:#000000;stop-opacity:0.57195574;" />
    </linearGradient>
    <linearGradient
       id="linearGradient2558">
      <stop
         id="stop2560"
         offset="0"
         style="stop-color:#000000;stop-opacity:1;" />
      <stop
         id="stop2562"
         offset="1"
         style="stop-color:#000000;stop-opacity:0;" />
    </linearGradient>
    <inkscape:perspective
       id="perspective2555"
       inkscape:persp3d-origin="64 : 42.666667 : 1"
       inkscape:vp_z="128 : 64 : 1"
       inkscape:vp_y="0 : 1000 : 0"
       inkscape:vp_x="0 : 64 : 1"
       sodipodi:type="inkscape:persp3d" />
  </defs>
  <sodipodi:namedview
     id="base"
     pagecolor="#ffffff"
     bordercolor="#666666"
     borderopacity="1.0"
     inkscape:pageopacity="0.0"
     inkscape:pageshadow="2"
     inkscape:zoom="4.5188543"
     inkscape:cx="-9.8118351"
     inkscape:cy="48.58169"
     inkscape:document-units="px"
     inkscape:current-layer="layer1"
     showgrid="true"
     inkscape:window-width="1440"
     inkscape:window-height="854"
     inkscape:window-x="0"
     inkscape:window-y="346"
     inkscape:window-maximized="0"
     showguides="true"
     inkscape:guide-bbox="true">
    <inkscape:grid
       type="xygrid"
       id="grid2816"
       empspacing="4"
       visible="true"
       enabled="true"
       snapvisiblegridlinesonly="true" />
  </sodipodi:namedview>
  <metadata
     id="metadata7">
    <rdf:RDF>
      <cc:Work
         rdf:about="">
        <dc:format>image/svg+xml</dc:format>
        <dc:type
           rdf:resource="http://purl.org/dc/dcmitype/StillImage" />
        <dc:title />
      </cc:Work>
    </rdf:RDF>
  </metadata>
  <g
     inkscape:label="Layer 1"
     inkscape:groupmode="layer"
     id="layer1"
     transform="translate(0,-988.36218)">
    <g
       id="g3442"
       transform="matrix(1.0672225,0,0,1.0672225,-2.1344446,-68.591281)">
      <path
         id="path3523"
         d="m 32,990.39343 c -16.551304,0 -30,13.41747 -30,29.96877 0,2.1669 0.2501728,17.1819 0.6875,19.2187 1.4426159,5.4725 4.4927762,9.4978 10.34375,10.4688 2.584116,0.4987 5.52285,-10.0453 8.71875,-10.0938 3.195906,-0.0484 6.653893,10.375 10.25,10.375 3.579326,0 7.004159,-10.4025 10.1875,-10.3437 3.183335,0.0588 6.108789,10.6061 8.6875,10.125 5.548142,-1.2594 9.264911,-4.5651 10.40625,-10.3125 0.464077,-2.095 0.687502,-17.2035 0.6875,-19.4375 0,-16.5513 -13.417445,-29.96877 -29.96875,-29.96877 z m -14.28125,14.84377 c 4.490375,0 8.164062,3.3905 8.65625,7.75 -0.464538,-2.2682 -2.470078,-4 -4.875,-4 -2.748483,0 -5.000002,2.2515 -5,5 0,2.7485 2.251514,4.9687 5,4.9687 2.404924,0 4.410461,-1.7005 4.875,-3.9687 -0.506076,4.3447 -4.176432,7.7187 -8.65625,7.7187 -4.825117,0 -8.7499998,-3.8936 -8.75,-8.7187 0,-4.8251 3.924882,-8.75 8.75,-8.75 z m 28.59375,0 c 4.490374,0 8.164064,3.3906 8.65625,7.75 -0.464539,-2.2682 -2.470076,-4 -4.875,-4 -2.748485,0 -5.000001,2.2516 -5,5 0,2.7485 2.251515,4.9687 5,4.9687 2.404923,0 4.410462,-1.7004 4.875,-3.9687 -0.506077,4.3448 -4.17643,7.7187 -8.65625,7.7187 -4.825118,0 -8.75,-3.8935 -8.75,-8.7187 0,-4.8251 3.924883,-8.75 8.75,-8.75 z"
         style="opacity:1;fill:#000000;fill-opacity:1;stroke:none" />
    </g>
  </g>
</svg>

<?xml version="1.0" encoding="UTF-8" standalone="no"?>
<!-- Created with Inkscape (http://www.inkscape.org/) -->
<svg
   xmlns:dc="http://purl.org/dc/elements/1.1/"
   xmlns:cc="http://creativecommons.org/ns#"
   xmlns:rdf="http://www.w3.org/1999/02/22-rdf-syntax-ns#"
   xmlns:svg="http://www.w3.org/2000/svg"
   xmlns="http://www.w3.org/2000/svg"
   xmlns:sodipodi="http://sodipodi.sourceforge.net/DTD/sodipodi-0.dtd"
   xmlns:inkscape="http://www.inkscape.org/namespaces/inkscape"
   width="64"
   height="64"
   id="svg2"
   version="1.1"
   inkscape:version="0.46"
   sodipodi:docname="shaman.svg"
   sodipodi:version="0.32"
   inkscape:output_extension="org.inkscape.output.svg.inkscape">
  <defs
     id="defs4">
    <inkscape:perspective
       sodipodi:type="inkscape:persp3d"
       inkscape:vp_x="0 : 526.18109 : 1"
       inkscape:vp_y="0 : 1000 : 0"
       inkscape:vp_z="744.09448 : 526.18109 : 1"
       inkscape:persp3d-origin="372.04724 : 350.78739 : 1"
       id="perspective10" />
    <inkscape:perspective
       id="perspective2389"
       inkscape:persp3d-origin="372.04724 : 350.78739 : 1"
       inkscape:vp_z="744.09448 : 526.18109 : 1"
       inkscape:vp_y="0 : 1000 : 0"
       inkscape:vp_x="0 : 526.18109 : 1"
       sodipodi:type="inkscape:persp3d" />
    <inkscape:perspective
       id="perspective3812"
       inkscape:persp3d-origin="372.04724 : 350.78739 : 1"
       inkscape:vp_z="744.09448 : 526.18109 : 1"
       inkscape:vp_y="0 : 1000 : 0"
       inkscape:vp_x="0 : 526.18109 : 1"
       sodipodi:type="inkscape:persp3d" />
    <linearGradient
       id="linearGradient2315">
      <stop
         id="stop2317"
         offset="0"
         style="stop-color:#000000;stop-opacity:0;" />
      <stop
         id="stop2319"
         offset="1"
         style="stop-color:#000000;stop-opacity:0.57195574;" />
    </linearGradient>
    <linearGradient
       id="linearGradient4072">
      <stop
         id="stop4074"
         offset="0"
         style="stop-color:#000000;stop-opacity:1;" />
      <stop
         id="stop4076"
         offset="1"
         style="stop-color:#000000;stop-opacity:0;" />
    </linearGradient>
    <inkscape:perspective
       id="perspective22159"
       inkscape:persp3d-origin="64 : 42.666667 : 1"
       inkscape:vp_z="128 : 64 : 1"
       inkscape:vp_y="0 : 1000 : 0"
       inkscape:vp_x="0 : 64 : 1"
       sodipodi:type="inkscape:persp3d" />
    <inkscape:perspective
       id="perspective35328"
       inkscape:persp3d-origin="24 : 16 : 1"
       inkscape:vp_z="48 : 24 : 1"
       inkscape:vp_y="0 : 1000 : 0"
       inkscape:vp_x="0 : 24 : 1"
       sodipodi:type="inkscape:persp3d" />
    <linearGradient
       id="linearGradient2564">
      <stop
         id="stop2566"
         offset="0"
         style="stop-color:#000000;stop-opacity:0;" />
      <stop
         id="stop2568"
         offset="1"
         style="stop-color:#000000;stop-opacity:0.57195574;" />
    </linearGradient>
    <linearGradient
       id="linearGradient2558">
      <stop
         id="stop2560"
         offset="0"
         style="stop-color:#000000;stop-opacity:1;" />
      <stop
         id="stop2562"
         offset="1"
         style="stop-color:#000000;stop-opacity:0;" />
    </linearGradient>
    <inkscape:perspective
       id="perspective2555"
       inkscape:persp3d-origin="64 : 42.666667 : 1"
       inkscape:vp_z="128 : 64 : 1"
       inkscape:vp_y="0 : 1000 : 0"
       inkscape:vp_x="0 : 64 : 1"
       sodipodi:type="inkscape:persp3d" />
  </defs>
  <sodipodi:namedview
     id="base"
     pagecolor="#ffffff"
     bordercolor="#666666"
     borderopacity="1.0"
     inkscape:pageopacity="0.0"
     inkscape:pageshadow="2"
     inkscape:zoom="4.5188543"
     inkscape:cx="16.632921"
     inkscape:cy="48.58169"
     inkscape:document-units="px"
     inkscape:current-layer="layer1"
     showgrid="true"
     inkscape:window-width="1440"
     inkscape:window-height="854"
     inkscape:window-x="-4"
     inkscape:window-y="-1"
     inkscape:window-maximized="0"
     showguides="true"
     inkscape:guide-bbox="true">
    <inkscape:grid
       type="xygrid"
       id="grid2816"
       empspacing="4"
       visible="true"
       enabled="true"
       snapvisiblegridlinesonly="true" />
  </sodipodi:namedview>
  <metadata
     id="metadata7">
    <rdf:RDF>
      <cc:Work
         rdf:about="">
        <dc:format>image/svg+xml</dc:format>
        <dc:type
           rdf:resource="http://purl.org/dc/dcmitype/StillImage" />
        <dc:title />
      </cc:Work>
    </rdf:RDF>
  </metadata>
  <g
     inkscape:label="Layer 1"
     inkscape:groupmode="layer"
     id="layer1"
     transform="translate(0,-988.36218)">
    <path
       style="opacity:0.66000001;fill:#000000;fill-opacity:1;stroke:none;stroke-width:4;stroke-linecap:round;stroke-miterlimit:4;stroke-opacity:1"
       d="M 32,990.39343 C 15.448696,990.39343 1.9999999,1003.8109 2,1020.3622 C 2,1022.5291 2.2501728,1037.5441 2.6875,1039.5809 C 4.1301159,1045.0534 7.1802762,1049.0787 13.03125,1050.0497 C 15.615366,1050.5484 18.5541,1040.0044 21.75,1039.9559 C 24.945906,1039.9075 28.403893,1050.3309 32,1050.3309 C 35.579326,1050.3309 39.004159,1039.9284 42.1875,1039.9872 C 45.370835,1040.046 48.296289,1050.5933 50.875,1050.1122 C 56.423142,1048.8528 60.139911,1045.5471 61.28125,1039.7997 C 61.745327,1037.7047 61.968752,1022.5962 61.96875,1020.3622 C 61.96875,1003.8109 48.551305,990.39343 32,990.39343 z M 17.71875,1005.2372 C 22.209125,1005.2372 25.882812,1008.6277 26.375,1012.9872 C 25.910462,1010.719 23.904922,1008.9872 21.5,1008.9872 C 18.751517,1008.9872 16.499998,1011.2387 16.5,1013.9872 C 16.5,1016.7357 18.751514,1018.9559 21.5,1018.9559 C 23.904924,1018.9559 25.910461,1017.2554 26.375,1014.9872 C 25.868924,1019.3319 22.198568,1022.7059 17.71875,1022.7059 C 12.893633,1022.7059 8.9687502,1018.8123 8.96875,1013.9872 C 8.96875,1009.1621 12.893632,1005.2372 17.71875,1005.2372 z M 46.3125,1005.2372 C 50.802874,1005.2372 54.476564,1008.6278 54.96875,1012.9872 C 54.504211,1010.719 52.498674,1008.9872 50.09375,1008.9872 C 47.345265,1008.9872 45.093749,1011.2388 45.09375,1013.9872 C 45.09375,1016.7357 47.345265,1018.9559 50.09375,1018.9559 C 52.498673,1018.9559 54.504212,1017.2555 54.96875,1014.9872 C 54.462673,1019.332 50.79232,1022.7059 46.3125,1022.7059 C 41.487382,1022.7059 37.5625,1018.8124 37.5625,1013.9872 C 37.5625,1009.1621 41.487383,1005.2372 46.3125,1005.2372 z"
       id="path3523" />
  </g>
</svg>
